img/icon-barf/liver.svg

<svg width="20" height="15" viewBox="0 0 20 15" fill="none" xmlns="http://www.w3.org/2000/svg">
<g clip-path="url(#clip0_137_483)">
<path d="M13.6344 0.357143C13.3663 0.357143 13.1828 0.559006 13.1828 0.854037C13.1828 1.14907 13.3663 1.35093 13.6344 1.35093C16.6408 1.35093 19.0967 1.4441 19.0967 2.25155C19.0967 4.20807 14.5942 6.39752 11.9548 7.65528C11.6302 7.36025 11.4044 6.66149 11.4044 6.10248C11.4044 5.54348 11.5879 5.04658 11.8984 4.70497C12.3924 4.20807 12.6747 3.40062 12.6747 2.6087C12.6747 1.66149 12.223 0.807453 11.4467 0.403727C11.4044 0.357143 11.3056 0.357143 11.2632 0.357143C10.6422 0.295031 9.9506 0.248447 9.31546 0.201863C8.271 0.0931677 7.18419 0 6.18208 0C3.23218 0 1.77841 1.4441 1.04446 2.65528C0.550459 3.49379 0 5.04658 0 6.45963C0 7.81056 0.550459 9.56522 0.959774 10.9627C1.04446 11.2112 1.10092 11.4596 1.1856 11.6615C1.27029 11.9565 1.36909 12.2516 1.41143 12.5C1.82075 13.8975 2.08892 15 3.31687 15C3.99435 15 4.77064 14.1925 6.08327 12.7484C6.95836 11.8012 7.96048 10.7609 8.59562 10.4037C9.04728 10.1553 9.59774 9.90683 10.1905 9.65839C10.4164 9.54969 10.5011 9.25466 10.4164 9.00621C10.3317 8.75776 10.0494 8.64907 9.82357 8.75776C9.23077 9.0528 8.68031 9.30124 8.22865 9.50311C7.41002 9.90683 6.4079 11.0093 5.46224 12.0497C4.7283 12.8106 3.6415 14.0062 3.31687 14.0062C2.86521 14.0062 2.68172 13.6491 2.31475 12.205C2.23006 11.9565 2.18772 11.6615 2.08892 11.3509C2.00423 11.1025 1.94778 10.854 1.86309 10.6056C1.45378 9.25466 0.959774 7.6087 0.959774 6.45963C0.959774 5.15528 1.51023 3.80435 1.82075 3.26087C2.68172 1.75466 4.17784 0.993789 6.22442 0.993789C7.18419 0.993789 8.271 1.08696 9.31546 1.19565C9.9506 1.24224 10.5857 1.28882 11.2209 1.35093C11.6302 1.59938 11.856 2.04969 11.856 2.6087C11.856 3.1677 11.6725 3.6646 11.362 4.00621C10.868 4.50311 10.5999 5.29503 10.5999 6.10248C10.5999 6.84783 10.9245 8.15217 11.8278 8.64907C11.9689 8.69565 12.096 8.69565 12.1948 8.64907C16.1044 6.75466 20.0141 4.70497 20.0141 2.25155C20 0.450311 17.6853 0.357143 13.6344 0.357143Z" fill="#961914"/>
</g>
<defs>
<clipPath id="clip0_137_483">
<rect width="20" height="15" fill="white"/>
</clipPath>
</defs>
</svg>

<svg width="20" height="15" fill="none" xmlns="http://www.w3.org/2000/svg"><g clip-path="url(#clip0_137_483)"><path d="M13.634.357c-.268 0-.451.202-.451.497s.183.497.451.497c3.007 0 5.463.093 5.463.9 0 1.957-4.503 4.147-7.142 5.404-.325-.295-.55-.994-.55-1.553 0-.559.183-1.055.493-1.397.494-.497.777-1.304.777-2.096 0-.948-.452-1.802-1.228-2.205-.043-.047-.141-.047-.184-.047-.62-.062-1.312-.109-1.948-.155C8.271.093 7.185 0 6.182 0c-2.95 0-4.404 1.444-5.138 2.655C.55 3.494 0 5.047 0 6.46c0 1.35.55 3.105.96 4.503.084.248.14.497.226.699.084.294.183.59.225.838.41 1.398.678 2.5 1.906 2.5.677 0 1.454-.807 2.766-2.252.875-.947 1.877-1.987 2.513-2.344a17.264 17.264 0 011.595-.746c.225-.108.31-.403.225-.652-.084-.248-.367-.357-.592-.248a42.53 42.53 0 01-1.595.745c-.819.404-1.821 1.506-2.767 2.547-.734.76-1.82 1.956-2.145 1.956-.452 0-.635-.357-1.002-1.801-.085-.248-.127-.543-.226-.854-.085-.249-.141-.497-.226-.745C1.453 9.255.96 7.609.96 6.46c0-1.305.55-2.656.86-3.2C2.683 1.756 4.179.995 6.225.995c.96 0 2.047.093 3.091.202.636.046 1.27.093 1.906.155.41.248.635.699.635 1.258s-.184 1.056-.494 1.397c-.494.497-.762 1.289-.762 2.096 0 .746.325 2.05 1.228 2.547a.496.496 0 00.367 0c3.91-1.894 7.82-3.944 7.82-6.397C20 .45 17.684.357 13.634.357z" fill="#961914"/></g><defs><clipPath id="clip0_137_483"><path fill="#fff" d="M0 0h20v15H0z"/></clipPath></defs></svg>
